src/svg/qzone-disabled.svg

<svg xmlns="http://www.w3.org/2000/svg" width="1000" height="1000" viewBox="0 0 1000 1000"><path fill-rule="evenodd" clip-rule="evenodd" fill="#020202" d="M852.269 422.349l-134.317 150.875c-31.494 2.126-60.192 13.259-83.912 31.188l-5.65-39.466 114.569-114.57v-7.16c7.888 0 14.32-6.405 14.32-14.321 0-7.888-6.433-14.292-14.32-14.292-2.574 0-4.867.866-6.993 2.042l-164.86-23.525-70.599-164.721h-1.007c0-7.915-6.433-14.321-14.32-14.321-7.889 0-14.321 6.406-14.321 14.321h-1.008l-70.598 164.721-164.917 23.523c-2.07-1.175-4.364-2.042-6.937-2.042-7.888 0-14.321 6.405-14.321 14.292 0 7.917 6.433 14.321 14.321 14.321v7.16l114.568 114.57-28.698 200.522 171.909-85.954 86.598 43.299c-.056 2.293-.671 4.53-.671 6.796 0 30.266 8.95 58.292 23.719 82.263l-109.644-54.066-196.971 97.087-1.791-1.259c-4.532 3.105-10.069 4.866-16.055 4.866-15.776 0-28.643-12.754-28.643-28.613 0-4.588 1.175-8.951 3.077-12.783l26.516-222.647-153.224-172.106 1.847-3.412c-4.363-5.008-7.105-11.497-7.105-18.657 0-15.86 12.867-28.698 28.643-28.698 1.565 0 3.021.223 4.476.531l.167-.224 206.929-41.844 105.897-201.922h1.623c4.922-8.475 14.042-14.32 24.615-14.32 10.572 0 19.691 5.846 24.67 14.32h1.622l105.842 201.922 206.929 41.844.112.224c1.51-.308 3.021-.531 4.531-.531 15.774 0 28.642 12.838 28.642 28.698 0 7.16-2.741 13.649-7.104 18.657l1.844 3.412zm-244.242 207.069h-237.417l143.211-143.268-200.551-57.256h315.12l-157.532 157.533 140.917 38.432c-1.341 1.454-2.517 3.02-3.748 4.559zm134.932-28.699c79.102 0 143.21 64.11 143.21 143.211 0 79.158-64.108 143.268-143.21 143.268-79.103 0-143.211-64.109-143.211-143.268 0-79.101 64.108-143.211 143.211-143.211zm-85.927 143.211c0 13.286 3.244 25.678 8.615 36.894l114.121-114.205c-11.188-5.313-23.607-8.559-36.81-8.559-47.437 0-85.926 38.431-85.926 85.87zm171.854 0c0-13.201-3.245-25.593-8.616-36.809l-114.122 114.205c11.188 5.313 23.607 8.559 36.811 8.559 47.438 0 85.927-38.432 85.927-85.955z"/></svg>

<?xml version="1.0" encoding="utf-8"?>
<!-- Generator: Adobe Illustrator 16.0.0, SVG Export Plug-In . SVG Version: 6.00 Build 0)  -->
<!DOCTYPE svg PUBLIC "-//W3C//DTD SVG 1.1//EN" "http://www.w3.org/Graphics/SVG/1.1/DTD/svg11.dtd">
<svg version="1.1" id="Layer_1" xmlns="http://www.w3.org/2000/svg" xmlns:xlink="http://www.w3.org/1999/xlink" x="0px" y="0px"
	 width="1000px" height="1000px" viewBox="0 0 1000 1000" enable-background="new 0 0 1000 1000" xml:space="preserve">
<path fill-rule="evenodd" clip-rule="evenodd" fill="#020202" d="M852.269,422.349L717.952,573.224
	c-31.494,2.126-60.192,13.259-83.912,31.188l-5.65-39.466l114.569-114.57v-7.16c7.888,0,14.32-6.405,14.32-14.321
	c0-7.888-6.433-14.292-14.32-14.292c-2.574,0-4.867,0.866-6.993,2.042L571.106,393.12l-70.599-164.721H499.5
	c0-7.915-6.433-14.321-14.32-14.321c-7.889,0-14.321,6.406-14.321,14.321h-1.008L399.253,393.12l-164.917,23.523
	c-2.07-1.175-4.364-2.042-6.937-2.042c-7.888,0-14.321,6.405-14.321,14.292c0,7.917,6.433,14.321,14.321,14.321v7.16l114.568,114.57
	l-28.698,200.522l171.909-85.954l86.598,43.299c-0.056,2.293-0.671,4.53-0.671,6.796c0,30.266,8.95,58.292,23.719,82.263
	L485.18,757.804l-196.971,97.087l-1.791-1.259c-4.532,3.105-10.069,4.866-16.055,4.866c-15.776,0-28.643-12.754-28.643-28.613
	c0-4.588,1.175-8.951,3.077-12.783l26.516-222.647L118.089,422.349l1.847-3.412c-4.363-5.008-7.105-11.497-7.105-18.657
	c0-15.86,12.867-28.698,28.643-28.698c1.565,0,3.021,0.223,4.476,0.531l0.167-0.224l206.929-41.844l105.897-201.922h1.623
	c4.922-8.475,14.042-14.32,24.615-14.32c10.572,0,19.691,5.846,24.67,14.32h1.622l105.842,201.922l206.929,41.844l0.112,0.224
	c1.51-0.308,3.021-0.531,4.531-0.531c15.774,0,28.642,12.838,28.642,28.698c0,7.16-2.741,13.649-7.104,18.657L852.269,422.349
	L852.269,422.349z M608.027,629.418H370.61L513.821,486.15l-200.551-57.256H628.39L470.858,586.427l140.917,38.432
	C610.434,626.313,609.258,627.879,608.027,629.418L608.027,629.418z M742.959,600.719c79.102,0,143.21,64.11,143.21,143.211
	c0,79.158-64.108,143.268-143.21,143.268c-79.103,0-143.211-64.109-143.211-143.268
	C599.748,664.829,663.856,600.719,742.959,600.719L742.959,600.719z M657.032,743.93c0,13.286,3.244,25.678,8.615,36.894
	l114.121-114.205c-11.188-5.313-23.607-8.559-36.81-8.559C695.521,658.06,657.032,696.491,657.032,743.93L657.032,743.93z
	 M828.886,743.93c0-13.201-3.245-25.593-8.616-36.809L706.148,821.326c11.188,5.313,23.607,8.559,36.811,8.559
	C790.397,829.885,828.886,791.453,828.886,743.93L828.886,743.93z"/>
</svg>
